X:1
T:James Gibb editions
T:Transfige, dulcissime Jesu - Caldara
T:#
%%score [ 1 2 ] { ( 3 4 ) | 5 }
L:1/8
Q:1/4=84
M:4/4
K:G
V:1 treble nm="Alto" snm="A"
V:2 bass nm="Bass" snm="B"
V:3 treble nm="Organ"
V:4 treble 
V:5 bass 
V:1
"^largo""^Antonio Caldara\n(1670 -1736)" z2 D2"^Transfige, dulcissime Jesu" G4 | F2 z D G2 AB | %2
w: Trans- fi-|ge, dul- cis- si- me|
 (E2 FG A4- | AGFE D4- | D6 ^C2) | D4 z2 z G | E2 DC A2 GA | (FG A4 GF | G6 =FE | =F2 ED E2 A2- | %10
w: Je\- * * *|||su, me-|dul- las et vi- sce- ra|me\- * * * *|||
 AD G4 F2) | G2 G2 E2 E2 | z2 E2 A2 GA | (F6 GA | B6 AG | A4- ABGF | G8) | F4 z2 z E | %18
w: |a, trans- fi- ge,|dul- cis- si- me|Je\- * *||||su, me-|
 C2 B,A, F2 EF | (^D4 E2 FG | A6 GF | B6 AG | A6 GF | GF)EE =F2 E^D | E6 ^D^C | (^D2 E4 D2) | %26
w: dul- las et vi- sce- ra|me\- * * *||||* * a, et vi- sce- ra,|vi- sce- ra|me\- * *|
 E2 z E ^G2 GG | A2 AA ^A2 AA | B2 B,2 z2 z E | C2 B,A, F2 GA | (D2 EF G4- | GGAB cBAG | %32
w: a, dul- cis- si- me|Je- su, trans- fi- ge, trans-|fi- ge me-|dul- las et vi- sce- ra|me\- * * *||
 F2 GA BAGF | E2 AG FE/D/ G2- | G2 FE F4) | !fermata!G8 ||[Q:1/4=96] z16 | z16 | z16 | z16 | %40
w: |||a.|||||
[Q:1/4=96][Q:1/4=96][Q:1/4=96] z8 D8 | E6 E2 F3 E D2 F2 | G2 G,2 G2 F2 E4 E2 E2 | %43
w: Te|sem- per si- ti- at, te|sem- per, sem- per que- rat, te|
 F2 G2 F2 E2 D4 D2 C2 | B,4 B,4 A,6 A,2 | G,2 G2 G2 G2 G4 F4 | z2 =F2 F2 FF E4 E4 | %47
w: sem- per, sem- per que- rat, ad|te per- ve- ni-|at dul- ce- do me- a,|tran- quil- li- tas me- a,|
 z2 =F2 F2 EF (D6 C2 | B,2 A,2 B,2 ^C2 D2 A,2 D4- | D4 ^C4) D2 D2 D2 D2 | D4 ^C4 z2 =C2 C2 CC | %51
w: re- fe- cti- o me\- *||* * a, dul- ce- do|me- a, tran- quil- li- tas|
 C4 B,4 G8 | A12 A4 | B3 A G2 B2 c2 C2 E2 F2 | G4 F2 E2 ^D2 B,2 E4- | E4 ^D4 E8 | %56
w: me- a, te|sem- per|si- ti- at, te sem- per, sem- per|que- rat, ad te per- ve\-|* ni- at|
 z2 B2 B2 B2 ^G4 G4 | z2 !courtesy!=G2 G2 GG F4 F4 | z2 =F2 F2 FF (E8- | E2 FG F2 E2 ^D2 E2 F4- | %60
w: dul- ce- do me- a,|tran- quil- li- tas me- a,|re- fe- cti- o me\-||
 F2 B,2 E8 D4 | ^C8) B,4 B,4 | ^C6 C2 ^D3 C B,4 | E8 F6 F2 | G3 F E2 G2 A2 A,2 D2 C2 | B,4 B,4 z8 | %66
w: |* a, te|sem- per si- ti- at,|te sem- per|si- ti- at, te sem- per, sem- per|que- rat,|
 D8 E6 E2 | F3 E D4 G8 | A6 A2 B3 A G2 B2 | c2 C2 c2 B2 A4 A2 A2 | B2 c2 B2 A2 G4 G2 G2 | %71
w: te sem- per|si- ti- at, te|sem- per si- ti- at, te|sem- per, sem- per que- rat, te|sem- per, sem- per que- rat, ad|
 F4 F4 E6 E2 | D8 z2 G2 G2 G2 | G4 F4 z2 =F2 F2 FF | E4 E4 z2 A2 A2 GA | (F2 G2 A6 D2 G4- | %76
w: te per- ve- ni-|at dul- ce- do|me- a, tran- quil- li- tas|me- a, re- fe- cti- o|me\- * * * *|
 G4 F4) G2 D2 D2 D2 | D4 ^C4 z2 =C2 C2 CC | B,4 B,4 z2 E2 E2 DE | (C2 D2 E6 D2 C4 | %80
w: * * a, dul- ce- do|me- a, tran- quil- li- tas|me- a, re- fe- cti- o|me\- * * * *|
 B,8[Q:1/4=94] A,4[Q:1/4=92] A4- |[Q:1/4=90] A2[Q:1/4=89] D2[Q:1/4=86] G8[Q:1/4=83] F4) | %82
w: ||
[Q:1/4=82] !fermata!G16 |] %83
w: a.|
V:2
 z4 z2 G,,2 | D,4 B,,2 z G,, | C,2 D,E, (A,,2 B,,C, | D,4- D,C,B,,A,, | G,,2 G,F, E,4) | %5
w: Trans-|fi- ge, dul-|cis- si- me Je\- * *|||
 D,3 D B,2 A,G, | C8- | C2 B,A, (B,4- | B,2 A,G, A,4- | A,G,A,B, C2 B,A, | B,3 G, C,2 D,2) | %11
w: su, me- dul- las et|vi\-|* sce- ra me\-||||
 G,,2 z2 z2 C,2 | A,,2 A,,2 z2 A,,2 | D,2 C,D, (B,,4- | B,,2 C,D, E,4- | E,2 ^D,^C, D,4 | %16
w: a, trans-|fi- ge, dul-|cis- si- me Je\-|||
 E,=D,=C,B,, ^A,,4) | B,,3 B, G,2 E,E, | A,8- | A,2 G,F, (G,4- | G,2 F,E, F,G, A,2- | %21
w: |su, me- dul- las et|vi\-|* sce- ra me\-||
 A,2 G,F, G,4- | G,2 F,E, ^D,4) | E,4 z2 z B, | C2 B,^A, B,4- | B,2 G, (F,/E,/) B,,4 | %26
w: ||a, et|vi- sce- ra, vi\-|* sce- ra * me-|
 E,2 z E, D,2 D,D, | C,2 C,C, E,2 E,E, | ^D,2 D,B, G,2 F,E, | A,2 B,C (D,2 E,F, | G,4- G,G,A,B, | %31
w: a, trans- fi- ge, trans-|fi- ge, dul- cis- si- me|Je- su, me- dul- las et|vi- sce- ra me\- * *||
 C3 B, A,G,F,E, | D,C,B,,A,, G,,2 A,,B,, | C,6 B,,A,,/G,,/ | D,8) | !fermata!G,,8 || (G,8 A,6 A,2 | %37
w: ||||a.|Te sem- per|
 B,3 A, G,2 B,2 C2 C,2 C2 B,2 | A,4 A,2 A,2 B,2 C2 B,2 A,2 | G,4 G,2 G,2 F,4 F,4 | %40
w: si- ti- at, te sem- per, sem- per|que- rat, te sem- per, sem- per|que- rat, ad te per-|
 E,6 E,2 D,2 D2 D2 D2 | D4 ^C4 z2 =C2 C2 CC | B,4 B,4 z2 C2 C2 B,C | A,6 G,2 F,2 D,2 E,2 F,2 | %44
w: ve- ni- at dul- ce- do|me- a, tran- quil- li- tas|me- a, re- fe- cti- o|me\- * * * * *|
 G,2 D,2 G,8 F,4) | G,4 z4 z2 D2 D2 D2 | B,4 B,4 z2 C2 C2 B,C | A,4 A,4 z2 B,2 B,2 A,B, | %48
w: |a, dul- ce- do|me- a, tran- quil- li- tas|me- a, re- fe- cti- o|
 (G,6 F,E, F,6 G,2 | A,4) A,,4 D,8 | E,6 E,2 F,3 E, D,2 F,2 | G,2 G,,2 G,2 F,2 E,4 E,2 E,2 | %52
w: me\- * * * *|* a, te|sem- per si- ti- at, te|sem- per, sem- per que- rat, te|
 F,2 G,2 F,2 E,2 D,4 D,2 C,2 | B,,4 B,,4 A,,6 A,,2 | G,,4 A,,4 B,,8- | B,,4 B,,4 E,2 E,2 E,2 E,2 | %56
w: sem- per, sem- per que- rat, ad|te per- ve- ni-|at, per- ve\-|* ni- at dul- ce- do|
 E,4 ^D,4 z2 =D,2 D,2 D,D, | ^C,4 C,4 z2 =C,2 C,2 C,C, | B,,4 B,,4 z2 C,2 C,2 C,C, | %59
w: me- a, tran- quil- li- tas|me- a, re- fe- cti- o|me- a, re- fe- cti- o|
 (^A,,8 B,,2 B,C B,2 A,2 | G,6 F,E, F,2 ^A,2 B,2 D,2 | E,2 ^C,2 F,4) B,,2 B,2 B,2 B,2 | %62
w: me\- * * * * *||* * * a, dul- ce- do|
 B,4 ^A,4 z2 =A,2 A,2 A,A, | G,4 G,4 z8 | E,8 F,6 F,2 | G,3 F, E,2 G,2 A,2 A,,2 A,2 G,2 | %66
w: me- a, tran- quil- li- tas|me- a,|te sem- per|si- ti- at, te sem- per, sem- per|
 F,4 F,4 z8 | D,8 E,6 E,2 | F,3 E, D,2 F,2 G,2 G,,2 G,2 =F,2 | E,4 E,2 E,2 F,2 G,2 F,2 E,2 | %70
w: que- rat,|te sem- per|si- ti- at, te sem- per, sem- per|que- rat, te sem- per, sem- per|
 D,4 D,2 D,2 E,6 (D,^C,) | (D,2 A,,2 D,8) ^C,4 | D,2 D2 D2 D2 D4 ^C4 | z2 =C2 C2 CC B,4 B,4 | %74
w: que- rat, ad te per\- *|ve\- * * ni-|at dul- ce- do me- a,|tran- quil- li- tas me- a,|
 z2 C2 C2 B,(C A,2 B,2 C2 B,A, | D6 C2 B,6 G,2 | C2 C,2 D,4) G,,4 z4 | z2 G,2 G,2 G,2 G,4 F,4 | %78
w: re- fe- cti- o me\- * * * *||* * * a,|dul- ce- do me- a,|
 z2 =F,2 F,2 F,F, E,4 E,4 | z2 A,2 A,2 G,A, (F,2 G,2 A,4- | A,2 D,2 G,8 F,4 | %81
w: tran- quil- li- tas me- a,|re- fe- cti- o me\- * *||
 B,2 A,2 B,2 G,2 D,8) | !fermata!G,,16 |] %83
w: |a.|
V:3
"^largo" [B,DG]8 | [A,DF]4 [G,G]4 | [G,CE]4 [CA]3 [B,G] | [A,DF]6 [B,G][CA] | [GB]3 A G4 | %5
 [A,DF]4 [B,DG]4 | [G,CE]4 [CEA]4- | [FA]6 GF | G6 =FE | =F4 E2 [EA]2- | A2 G2 [A,E]2 [D^F]2 | %11
 [B,DG]4 [G,CE]4- | [A,CE]4 [CEA]4 | [DF]8- | [DF]4 [EG]4 | [FA]6 [GB][FA] | [EG]6 [FA][EG] | %17
 [^DF]4 [B,EG]4 | E4- E4 | [^DF]4 [EB]4- | [EA]6 GF | B6 AG | A6 BA | [B,EG]4 =F2 E^D | %24
 E2 G2 ^F4- | F2 BG F4 | [B,EG]4 [E^GB]4 | [EAe]4 [F^A^c]4 | [FBf]4 [GBe]4- | e4 d3 c | B6 cd | %31
 G2 AB [Ac]4- | [Ac]A[GB][Ac] [Bd][Ac][GB][FA] | [EG][DF] E2 F2 G2- | G2 FE F4 | %35
 !fermata![B,DG]8 || [GB]4 [Bd]4- [Ad]4 [Ac]4 | B6 A2 G8 | A6 G2 ^F8 | G4- [EG]4 [EF]4 [DF]4 | %40
 [G,E]8 [F,A,D]4 [DF]4 | A12 d4- | d4 d4 e6 d2 | [Ac]8 d2 c2 [DB]2- [CDA]2 | [B,DG]8 [CA]8 | %45
 B4- [GB]4 [AB]4 [FA]4 | [=FGd]8 [EG]8 | [Cc]8 G6 [^FA]2 | [GB]8 [DA]6- [B,DG]2 | [DF]4 [^CE]4 F8 | %50
 [G,G]8 A3 G F2 A2 | D2 G2 B2 A2 [B,EG]8 | A6 G2 F8 | [G,DG]8 [CA]8 | [DGB]4 [CA]4- [^DA]4 [EG]4- | %55
 [EF]4 [^DF]4 [EG]8- | [EF]4 B4 [E^G]8 | [E=G]8 [DF]8- | [D=F]8 [CE]8 | [F,^CE]8 [B,^D]4 x4 | %60
 G4- [EG]4 [EF]4 [=DF]4 | G2 E2 [^A,^C]4 [B,D]4 [DF]4- | F4 ^c4 B6 =c2 | B2 A2 G4 [A,F]8 | %64
 E12 D4- | D4 [EG]8 E4 | [A,DF]8 [B,G]4 [A,A]4 | [A,F]8 [G,G]8 | D16 | [G,CG]8 [A,D]8 | B6 A2 G8 | %71
 [A,DF]8 [G,E]8 | D8- D2 B,2 ^C2 [CD]2 | [=CE]4- [CF]4 [=FG]8- | G4 A2 B2 c4 e4 | [FA]12 G4- | %76
 [GA]4 [FA]4 [GB]4 [Ad]4 | G12 F4 | [B,DF]8 [G,C-E-]8 | [A,CE]8 [CEA]2 [B,DG]2 F2 E2 | %80
 [B,D]8 E4 D2 A2 | F4 G4- [GA]4 [FA]4 | !fermata![B,DG]16 |] %83
V:4
 x8 | x4 D2 CB, | x4 E2 x2 | x6 D2 | D6 [G,^C]2 | x8 | x8 | D8- | D2 CB, C4- | CB,CD x4 | %10
 [B,D]4 x4 | x8 | x8 | A,4 B,4- | B,8 | B,8- | B,4 ^C4 | x8 | C8 | B,8 | C8 | D8 | [EG]4 [B,F]4 | %23
 x4 C3 B, | E6 ^D^C | ^D2 [B,E]2- B,2 [B,D]2 | x8 | x8 | x8 | [Ac]2 [GB]2 [FA]2 GA | [DG]8 | %31
 [EG]4- E4 | F2 x2 x4 | x2 CB, [A,D]2- [G,D]2 | [A,D]6 B,C | x8 || D16 | %37
 [DG]4 [B,D]4 [CE]6 [B,D]2 | [A,C]8 [B,D]6 [A,C]2 | [G,B,]4 B,2 A,2 A,8 | B,4 A,4 x4 x4 | %41
 E6- [EG]2 [DF]4 [FA]4 | [DG]4 [GB]2 [FA]2 [EG]8 | F6 E2 D6 x2 | x8 E4 D4 | [B,D]4 D12 | x16 | %47
 =F6 E2 D6 C2 | D4 B,2 ^C2 x4 x4 | A,8- [A,D]8 | D4 ^C4 [=CD]8- | [CD]4 [B,D]4 x4 x4 | [A,D]16 | %53
 x4 x4 E6 F2 | x4 F2 E2 B,8- | B,16 | B,16 | A,16 | G,16 | x4 x4 x4 [B,=DF]4- | %60
 [B,F]4 ^C4 ^A,4 B,4 | [B,^C]4 x4 x4 x4 | [^CF]8 [^DF]8 | [B,E]8 =C4 B,4 | [G,B,]8 A,8 | B,8 A,8 | %66
 x4 x4 E8 | D12 =C4- | [A,C]8 [G,B,]8 | x4 x4 x4 x4 | [B,F]8- B,2 ^C2 D2 E2 | x4 x4 B,4 A,4 | %72
 [F,A,]8 G,8- | G,4 A,4 B,4 D4 | [CE]6 [DG]2 [EA]8 | D16 | E4 D8 D4- | D4 [G,^C]4 [A,=C]8 | %78
 x4 x4 x4 x4 | x4 x4 x4 C4 | x4 x4 [A,C]8 | D8- D4 C4 | x16 |] %83
V:5
 G,,8 | D,4 B,,2 A,,G,, | C,2 D,E, A,,2 B,,C, | D,4- D,C,B,,A,, | G,,2 G,F, E,4 | D,4 G,,4 | C,8- | %7
w: ||||* * * 7~~~6||~~~~~~~~~~~~~~~~~~~~~~~~~~~~~~~~~~~6|
w: |||||||
 C,2 B,,A,, B,,4- | B,,2 A,,G,, A,,4- | A,,G,,A,,B,, C,2 B,,A,, | B,,4 C,2 D,2 | G,,4 C,4 | %12
w: 4 * * 7~~~~6~~~~~~5|6 * * 7~~~~6~~~~5|6 * * * * * *|7~~~~~~~~~~6 6 *||
w: 2 * * *|||* 5 *||
 A,,4 A,,4 | D,2 C,2 B,,4 | B,,4 E,4- | E,2 ^D,^C, D,4 | E,D,C,B,, ^A,,4 | B,,4 E,4 | A,8- | %19
w: |* 4 5||2 * * 6|* * * * 7||5~~~~~~~~~~~~~~~~~~~~~~~6|
w: |||* * * 5||||
 A,2 G,F, G,4- | G,2 F,E, F,G, A,2- | A,2 G,F, G,4 | ^C,4 ^D,4 | E,4 A,3 B, | C2 B,^A, B,4- | %25
w: 4 * * 6|2 * * * * 6|2 * * *|6 *|* 6~~~~~~~~~~5 *|* * * 4~~~~3~~~~~~2|
w: 2 * * *|||5 *|||
 B,2 G,E, B,,4 | E,4 D,4 | C,4 E,4 | ^D,4 E,4 | A,,4 D,2 E,F, | G,6 A,B, | C3 B, A,G,F,E, | %32
w: 3 * * 4~~~~3|* 4|6 4|||||
w: ||* 2|||||
 D,C,B,,A,, G,,2 A,,B,, | C,6 B,,A,,/G,,/ | D,8 | !fermata!G,,8 || G,,4 G,8 F,4 | G,6 =F,2 E,8 | %38
w: |5~~~~~~~~6~~~~~~~~~4 * * *|4~~~~~~~~3||* ~~~~~~2 *|* * 6|
w: |~~~~~~~~~~~~~~~~~~~~~~2 * * *|||||
 =F,2 =F,,2 F,2 E,2 D,6 D,2 | E,4 D,2 ^C,2 D,2 D,,2 D,4- | D,4 ^C,4 D,4 D4- | D4 ^C4 =C8 | %42
w: * * * * 6 *||2 * * *|2 * 4|
w: |||* * 2|
 B,8 C6 B,2 | A,6 G,2 F,2 D,2 E,2 F,2 | G,2 D,2 G,8 F,4 | G,4 G,,4 D,8 | B,,8 C,8 | A,8 B,6 A,2 | %48
w: |6 6 6 * * *|* * ~~~~~~~~~~~~~~~~2 *|* * 4~~~~~~~~~~~~~~~~~~3|6 *|6 6 6|
w: ||||5 *||
 G,6 E,2 F,6 G,2 | A,4 A,,4 D,8 | E,8 F,3 E, D,2 F,2 | G,2 G,,2 G,2 F,2 E,8 | %52
w: * * 6 *|4 3 *|7~~~~~~~~6 6 * * *||
w: ||* 5 * * *||
 F,2 G,2 F,2 E,2 D,6 C,2 | B,,8 A,,8 | G,,4 A,,4 B,,8- | B,,8 E,8 | B,,8 !courtesy!=D,8 | %57
w: ||* 6 ~~~~~~~~~~~~~~~~~~~6|5~~~~~~~~~~~~3 *|4~~~~~~~~~~~~~~~~~3 4|
w: ||* * ~~~~~~~~~~~~~~~~~~~4|4 *|* 2|
 ^C,8 =C,8 | B,,8 C,8 | ^A,,8 B,,8 | E,8 F,4 B,2 D,2 | E,2 ^C,2 F,2 F,,2 B,,4 B,4- | %62
w: 6 4|6 *|6 *|9~~~~~~~~~~8 7 * *|6 * * * * *|
w: 5 2|5 *|5 *|~~~~~~~~~~~~6 * * *|5 * * * * *|
 B,4 ^A,4 =A,8 | G,2 F,2 E,8 ^D,4 | E,8 F,8 | G,4 E,4 ^C,8 | D,12 ^C,4 | D,8 E,6 E,2 | %68
w: 2 * 4|* * ~~~~~2 *|* 7~~~~~~~~~~~~~~~~~~6|5 * *|~~~~~~~~~~~~~~~~2 *|* 7~~~~6 *|
w: * * 2||||||
 F,3 E, D,2 F,2 G,2 G,,2 G,2 =F,2 | E,8 F,2 G,2 F,2 E,2 | D,8 E,6 D,^C, | D,2 A,,2 D,8 ^C,4 | %72
w: 6 * * * * * * *|6 * * * *|6 7~~~~~6 * *|* * ~~~~~~2 *|
w: 5 * * * * * * *||||
 D,8 E,8 | A,,8 G,,8 | C,8 A,,8 | D,6 C,2 B,,8 | C,4 D,4 G,,4 F,,4 | E,,8 A,,8 | G,,8 C,8 | %79
w: * 7~~~~~~~~~~~~6|7~~~~~~~~~~~~~~~~~~~6 7||* * 7~~~~~~~6|6 * * *|7~~~~~~~~~~~~~~6 7~~~~~~~~~~~~~~~~~~6|7 *|
w: ||||5 * * *|||
 A,,4 A,2 G,2 F,2 G,2 A,4- | A,2 D,2 G,8 F,4 | B,2 A,2 B,2 G,2 D,8 | !fermata!G,,16 |] %83
w: |2 * ~~~~~~~~2 *|7 * 6 * 4~~~~~~~3||
w: ||||

